icons/weighingmachine.svg

<svg xmlns="http://www.w3.org/2000/svg" viewBox="0 0 24 24" fill="currentColor">
  <path d="M7 3.75C5.21421 3.75 3.75 5.21421 3.75 7v10c0 1.7981 1.37646 3.25 3.25 3.25h10c1.7858 0 3.25-1.4642 3.25-3.25V7c0-1.78579-1.4642-3.25-3.25-3.25H7ZM2.25 7c0-2.61421 2.13579-4.75 4.75-4.75h10c2.6142 0 4.75 2.13579 4.75 4.75v10c0 2.6142-2.1358 4.75-4.75 4.75H7c-2.72646 0-4.75-2.1481-4.75-4.75V7Zm4.5 3c0-.41421.33579-.75.75-.75h3.0986L9.37598 7.4161c-.22976-.34464-.13663-.81029.20801-1.04006.34465-.22976.81031-.13663 1.04011.20801L12.4014 9.25H16.5c.4142 0 .75.33579.75.75 0 .4142-.3358.75-.75.75h-4.4838c-.0103.0002-.0207.0002-.031 0H7.5c-.41421 0-.75-.3358-.75-.75Z"/>
</svg>

<svg width="24" height="24" viewBox="0 0 24 24" fill="none" xmlns="http://www.w3.org/2000/svg">
<path fill-rule="evenodd" clip-rule="evenodd" d="M7 3.75C5.21421 3.75 3.75 5.21421 3.75 7V17C3.75 18.7981 5.12646 20.25 7 20.25H17C18.7858 20.25 20.25 18.7858 20.25 17V7C20.25 5.21421 18.7858 3.75 17 3.75H7ZM2.25 7C2.25 4.38579 4.38579 2.25 7 2.25H17C19.6142 2.25 21.75 4.38579 21.75 7V17C21.75 19.6142 19.6142 21.75 17 21.75H7C4.27354 21.75 2.25 19.6019 2.25 17V7ZM6.75 10C6.75 9.58579 7.08579 9.25 7.5 9.25H10.5986L9.37598 7.4161C9.14622 7.07146 9.23935 6.60581 9.58399 6.37604C9.92864 6.14628 10.3943 6.23941 10.6241 6.58405L12.4014 9.25H16.5C16.9142 9.25 17.25 9.58579 17.25 10C17.25 10.4142 16.9142 10.75 16.5 10.75H12.0162C12.0059 10.7502 11.9955 10.7502 11.9852 10.75H7.5C7.08579 10.75 6.75 10.4142 6.75 10Z" fill="black"/>
</svg>
